; generated by Slic3r 1.2.1 on 2014-11-22 at 17:50:01

; external perimeters extrusion width = 0.40mm
; perimeters extrusion width = 0.67mm
; infill extrusion width = 0.67mm
; solid infill extrusion width = 0.67mm
; top infill extrusion width = 0.67mm
; support material extrusion width = 0.40mm

M104 S190 ; set temperature
G28 ; home all axes
;G29
G1 Z5 F1000 ; lift nozzle
M109 S190 ; wait for temperature to be reached
G21 ; set units to millimeters
G90 ; use absolute coordinates
M82 ; use absolute distances for extrusion
G92 E0 ; reset extrusion distance
G1 Z0.400 F12000.000 ; move to next layer (0)
G1 E-3.50000 F12000.000 ; retract
G92 E0 ; reset extrusion distance
G1 Z1.400 F12000.000 ; lift Z
G1 X19.003 Y0.000 F12000.000 ; move to first skirt point
G1 Z0.400 F12000.000 ; restore layer Z
G1 E3.50000 F12000.000 ; compensate retraction
G1 X19.003 Y25.429 E5.16687 F300.000 ; skirt
G1 X18.606 Y27.785 E5.32345 ; skirt
G1 X17.458 Y29.880 E5.48002 ; skirt
G1 X15.967 Y31.294 E5.61474 ; skirt
G1 X15.867 Y31.365 E5.62277 ; skirt
G1 X13.715 Y32.400 E5.77934 ; skirt
G1 X11.721 Y32.682 E5.91134 ; skirt
G1 X-11.721 Y32.682 E7.44791 ; skirt
G1 X-14.076 Y32.285 E7.60449 ; skirt
G1 X-15.866 Y31.365 E7.73641 ; skirt
G1 X-15.967 Y31.294 E7.74451 ; skirt
G1 X-17.661 Y29.610 E7.90109 ; skirt
G1 X-18.709 Y27.463 E8.05767 ; skirt
G1 X-19.003 Y25.429 E8.19238 ; skirt
G1 X-19.003 Y-25.429 E11.52611 ; skirt
G1 X-18.606 Y-27.785 E11.68269 ; skirt
G1 X-17.458 Y-29.880 E11.83927 ; skirt
G1 X-15.973 Y-31.290 E11.97349 ; skirt
G1 X-15.868 Y-31.365 E11.98199 ; skirt
G1 X-13.715 Y-32.400 E12.13857 ; skirt
G1 X-12.257 Y-32.662 E12.23569 ; skirt
G1 X1.152 Y-33.666 E13.11705 ; skirt
G1 X2.402 Y-33.650 E13.19902 ; skirt
G1 X12.435 Y-32.647 E13.85997 F300.000 ; skirt
G1 X14.740 Y-32.017 E14.01655 ; skirt
G1 X15.868 Y-31.365 E14.10197 ; skirt
G1 X15.968 Y-31.293 E14.11005 ; skirt
G1 X17.662 Y-29.609 E14.26663 ; skirt
G1 X18.710 Y-27.462 E14.42321 ; skirt
G1 X19.003 Y-25.429 E14.55784 ; skirt
G1 X19.003 Y-0.060 E16.22078 ; skirt
G1 X18.609 Y-0.060 F12000.000 ; move to first skirt point
G1 X18.609 Y25.429 E17.89158 F300.000 ; skirt
G1 X18.212 Y27.717 E18.04377 ; skirt
G1 X17.067 Y29.737 E18.19596 ; skirt
G1 X15.740 Y30.972 E18.31483 ; skirt
G1 X15.640 Y31.043 E18.32286 ; skirt
G1 X13.543 Y32.039 E18.47505 ; skirt
G1 X11.721 Y32.288 E18.59557 ; skirt
G1 X-11.721 Y32.288 E20.13215 ; skirt
G1 X-14.008 Y31.891 E20.28434 ; skirt
G1 X-15.639 Y31.044 E20.40479 ; skirt
G1 X-15.740 Y30.972 E20.41289 ; skirt
G1 X-17.378 Y29.327 E20.56508 ; skirt
G1 X-18.367 Y27.227 E20.71727 ; skirt
G1 X-18.609 Y25.429 E20.83614 ; skirt
G1 X-18.609 Y-25.429 E24.16987 ; skirt
G1 X-18.212 Y-27.717 E24.32206 ; skirt
G1 X-17.067 Y-29.737 E24.47425 ; skirt
G1 X-15.746 Y-30.968 E24.59266 ; skirt
G1 X-15.640 Y-31.043 E24.60114 ; skirt
G1 X-13.543 Y-32.039 E24.75333 ; skirt
G1 X-12.227 Y-32.269 E24.84087 ; skirt
G1 X1.181 Y-33.273 E25.72223 ; skirt
G1 X2.363 Y-33.258 E25.79970 ; skirt
G1 X12.396 Y-32.255 E26.46066 F300.000 ; skirt
G1 X14.633 Y-31.632 E26.61285 ; skirt
G1 X15.640 Y-31.043 E26.68933 ; skirt
G1 X15.741 Y-30.972 E26.69741 ; skirt
G1 X17.379 Y-29.326 E26.84960 ; skirt
G1 X18.367 Y-27.225 E27.00179 ; skirt
G1 X18.609 Y-25.429 E27.12059 ; skirt
G1 X18.609 Y-0.120 E28.77959 ; skirt
G1 X18.215 Y-0.120 F12000.000 ; move to first skirt point
G1 X18.215 Y25.429 E30.45432 F300.000 ; skirt
G1 X17.818 Y27.647 E30.60199 ; skirt
G1 X16.677 Y29.589 E30.74966 ; skirt
G1 X15.512 Y30.650 E30.85294 ; skirt
G1 X15.412 Y30.721 E30.86096 ; skirt
G1 X13.372 Y31.677 E31.00864 ; skirt
G1 X11.721 Y31.894 E31.11781 ; skirt
G1 X-11.721 Y31.894 E32.65439 ; skirt
G1 X-13.938 Y31.497 E32.80206 ; skirt
G1 X-15.411 Y30.722 E32.91117 ; skirt
G1 X-15.512 Y30.650 E32.91927 ; skirt
G1 X-17.094 Y29.046 E33.06694 ; skirt
G1 X-18.021 Y26.993 E33.21461 ; skirt
G1 X-18.215 Y25.429 E33.31788 ; skirt
G1 X-18.215 Y-25.429 E36.65162 ; skirt
G1 X-17.818 Y-27.647 E36.79929 ; skirt
G1 X-16.677 Y-29.589 E36.94696 ; skirt
G1 X-15.518 Y-30.646 E37.04979 ; skirt
G1 X-15.412 Y-30.721 E37.05824 ; skirt
G1 X-13.373 Y-31.677 E37.20591 ; skirt
G1 X-12.198 Y-31.876 E37.28401 ; skirt
G1 X1.210 Y-32.880 E38.16537 ; skirt
G1 X2.324 Y-32.866 E38.23834 ; skirt
G1 X12.357 Y-31.862 E38.89930 F300.000 ; skirt
G1 X15.412 Y-30.721 E39.11310 ; skirt
G1 X15.513 Y-30.650 E39.12117 ; skirt
G1 X17.094 Y-29.045 E39.26885 ; skirt
G1 X18.021 Y-26.992 E39.41652 ; skirt
G1 X18.215 Y-25.429 E39.51972 ; skirt
G1 X18.215 Y-0.180 E41.17479 ; skirt
G1 F9600.000
G1 X18.215 Y2.620 E37.84979 ; retract
G1 E37.67479 F12000.000 ; retract
G92 E0 ; reset extrusion distance
G1 Z1.400 F12000.000 ; lift Z
G1 X10.622 Y-8.500 F12000.000 ; move to first perimeter point
G1 Z0.400 F12000.000 ; restore layer Z
G1 E3.50000 F12000.000 ; compensate retraction
G1 X11.187 Y-8.101 E3.54530 F300.000 ; perimeter
G1 X11.187 Y8.101 E4.60731 ; perimeter
G1 X10.622 Y8.500 E4.65264 ; perimeter
G1 X11.187 Y8.899 E4.69799 ; perimeter
G1 X11.187 Y24.866 E5.74460 ; perimeter
G1 X-11.187 Y24.866 E7.21115 ; perimeter
G1 X-11.187 Y8.899 E8.25776 ; perimeter
G1 X-10.622 Y8.500 E8.30311 ; perimeter
G1 X-11.187 Y8.101 E8.34843 ; perimeter
G1 X-11.187 Y-8.101 E9.41044 ; perimeter
G1 X-10.622 Y-8.500 E9.45575 ; perimeter
G1 X-11.187 Y-8.899 E9.50105 ; perimeter
G1 X-11.187 Y-24.866 E10.54766 ; perimeter
G1 X-5.624 Y-24.866 E10.91230 ; perimeter
G1 X-5.624 Y-22.134 E11.09136 ; perimeter
G1 X-8.124 Y-22.134 E11.25523 ; perimeter
G1 X-8.124 Y20.134 E14.02588 ; perimeter
G1 X-0.934 Y20.134 E14.49715 ; perimeter
G1 X-0.624 Y20.169 E14.51760 ; perimeter
G1 X-0.200 Y20.185 E14.54541 ; perimeter
G1 X0.624 Y20.169 E14.59944 ; perimeter
G1 X0.934 Y20.134 E14.61988 ; perimeter
G1 X8.124 Y20.134 E15.09116 ; perimeter
G1 X8.124 Y-22.134 E17.86180 ; perimeter
G1 X5.624 Y-22.134 E18.02567 ; perimeter
G1 X5.624 Y-24.866 E18.20473 ; perimeter
G1 X11.187 Y-24.866 E18.56938 ; perimeter
G1 X11.187 Y-8.899 E19.61599 ; perimeter
G1 X10.671 Y-8.535 E19.65736 ; perimeter
G1 X11.305 Y-8.500 F12000.000 ; move to first perimeter point
G1 X11.581 Y-8.305 E19.67949 F300.000 ; perimeter
G1 X11.581 Y8.305 E20.76826 ; perimeter
G1 X11.305 Y8.500 E20.79041 ; perimeter
G1 X11.581 Y8.695 E20.81256 ; perimeter
G1 X11.581 Y25.260 E21.89838 ; perimeter
G1 X-11.581 Y25.260 E23.41660 ; perimeter
G1 X-11.581 Y8.695 E24.50243 ; perimeter
G1 X-11.305 Y8.500 E24.52458 ; perimeter
G1 X-11.581 Y8.305 E24.54673 ; perimeter
G1 X-11.581 Y-8.305 E25.63550 ; perimeter
G1 X-11.305 Y-8.500 E25.65763 ; perimeter
G1 X-11.581 Y-8.695 E25.67977 ; perimeter
G1 X-11.581 Y-25.260 E26.76559 ; perimeter
G1 X-5.230 Y-25.260 E27.18191 ; perimeter
G1 X-5.230 Y-21.740 E27.41264 ; perimeter
G1 X-7.730 Y-21.740 E27.57651 ; perimeter
G1 X-7.730 Y19.740 E30.29548 ; perimeter
G1 X-0.912 Y19.740 E30.74236 ; perimeter
G1 X-0.595 Y19.776 E30.76329 ; perimeter
G1 X-0.200 Y19.790 E30.78918 ; perimeter
G1 X0.595 Y19.776 E30.84129 ; perimeter
G1 X0.912 Y19.740 E30.86221 ; perimeter
G1 X7.730 Y19.740 E31.30909 ; perimeter
G1 X7.730 Y-21.740 E34.02806 ; perimeter
G1 X5.230 Y-21.740 E34.19194 ; perimeter
G1 X5.230 Y-25.260 E34.42267 ; perimeter
G1 X11.581 Y-25.260 E34.83899 ; perimeter
G1 X11.581 Y-8.695 E35.92481 ; perimeter
G1 X11.354 Y-8.535 E35.94301 ; perimeter
G1 X11.080 Y-8.248 F12000.000 ; move inwards before travel
G1 F9600.000
G1 X11.581 Y-8.305 E35.55983 ; retract
G1 F9600.000
G1 X11.581 Y-5.828 E32.61801 ; retract
G1 E32.44301 F12000.000 ; retract
G92 E0 ; reset extrusion distance
G1 Z1.400 F12000.000 ; lift Z
G1 X8.389 Y-21.504 F12000.000 ; move to first fill point
G1 Z0.400 F12000.000 ; restore layer Z
G1 E3.50000 F12000.000 ; compensate retraction
G1 X10.921 Y-18.973 E3.73467 F300.000 ; fill
G1 X10.921 Y-18.414 E3.77129 ; fill
G1 X8.389 Y-20.945 E4.00596 ; fill
G1 X8.389 Y-20.387 E4.04259 ; fill
G1 X10.921 Y-17.855 E4.27726 ; fill
G1 X10.921 Y-17.296 E4.31388 ; fill
G1 X8.389 Y-19.828 E4.54855 ; fill
G1 X8.389 Y-19.269 E4.58518 ; fill
G1 X10.921 Y-16.738 E4.81985 ; fill
G1 X10.921 Y-16.179 E4.85647 ; fill
G1 X8.389 Y-18.710 E5.09114 ; fill
G1 X8.389 Y-18.151 E5.12777 ; fill
G1 X10.921 Y-15.620 E5.36243 ; fill
G1 X10.921 Y-15.061 E5.39906 ; fill
G1 X8.389 Y-17.593 E5.63373 ; fill
G1 X8.389 Y-17.034 E5.67035 ; fill
G1 X10.921 Y-14.502 E5.90502 ; fill
G1 X10.921 Y-13.944 E5.94165 ; fill
G1 X8.389 Y-16.475 E6.17632 ; fill
G1 X8.389 Y-15.916 E6.21294 ; fill
G1 X10.921 Y-13.385 E6.44761 ; fill
G1 X10.921 Y-12.826 E6.48424 ; fill
G1 X8.389 Y-15.358 E6.71891 ; fill
G1 X8.389 Y-14.799 E6.75553 ; fill
G1 X10.921 Y-12.267 E6.99020 ; fill
G1 X10.921 Y-11.709 E7.02683 ; fill
G1 X8.389 Y-14.240 E7.26149 ; fill
G1 X8.389 Y-13.681 E7.29812 ; fill
G1 X10.921 Y-11.150 E7.53279 ; fill
G1 X10.921 Y-10.591 E7.56941 ; fill
G1 X8.389 Y-13.123 E7.80408 ; fill
G1 X8.389 Y-12.564 E7.84071 ; fill
G1 X10.921 Y-10.032 E8.07538 ; fill
G1 X10.921 Y-9.474 E8.11200 ; fill
G1 X8.389 Y-12.005 E8.34667 ; fill
G1 X8.389 Y-11.446 E8.38330 ; fill
G1 X10.850 Y-8.986 E8.61136 ; fill
G1 X10.522 Y-8.755 E8.63764 ; fill
G1 X8.389 Y-10.888 E8.83536 ; fill
G1 X8.389 Y-10.329 E8.87198 ; fill
G1 X10.921 Y-7.797 E9.10665 ; fill
G1 X10.921 Y-7.239 E9.14328 ; fill
G1 X8.389 Y-9.770 E9.37794 ; fill
G1 X8.389 Y-9.211 E9.41457 ; fill
G1 X10.921 Y-6.680 E9.64924 ; fill
G1 X10.921 Y-6.121 E9.68586 ; fill
G1 X8.389 Y-8.653 E9.92053 ; fill
G1 X8.389 Y-8.094 E9.95716 ; fill
G1 X10.921 Y-5.562 E10.19183 ; fill
G1 X10.921 Y-5.004 E10.22845 ; fill
G1 X8.389 Y-7.535 E10.46312 ; fill
G1 X8.389 Y-6.976 E10.49975 ; fill
G1 X10.921 Y-4.445 E10.73442 ; fill
G1 X10.921 Y-3.886 E10.77104 ; fill
G1 X8.389 Y-6.418 E11.00571 ; fill
G1 X8.389 Y-5.859 E11.04234 ; fill
G1 X10.921 Y-3.327 E11.27700 ; fill
G1 X10.921 Y-2.769 E11.31363 ; fill
G1 X8.389 Y-5.300 E11.54830 ; fill
G1 X8.389 Y-4.741 E11.58492 ; fill
G1 X10.921 Y-2.210 E11.81959 ; fill
G1 X10.921 Y-1.651 E11.85622 ; fill
G1 X8.389 Y-4.183 E12.09089 ; fill
G1 X8.389 Y-3.624 E12.12751 ; fill
G1 X10.921 Y-1.092 E12.36218 ; fill
G1 X10.921 Y-0.534 E12.39881 ; fill
G1 X8.389 Y-3.065 E12.63347 ; fill
G1 X8.389 Y-2.506 E12.67010 ; fill
G1 X10.921 Y0.025 E12.90477 ; fill
G1 X10.921 Y0.584 E12.94140 ; fill
G1 X8.389 Y-1.948 E13.17606 ; fill
G1 X8.389 Y-1.389 E13.21269 ; fill
G1 X10.921 Y1.143 E13.44736 ; fill
G1 X10.921 Y1.701 E13.48398 ; fill
G1 X8.389 Y-0.830 E13.71865 ; fill
G1 X8.389 Y-0.271 E13.75528 ; fill
G1 X10.921 Y2.260 E13.98995 ; fill
G1 X10.921 Y2.819 E14.02657 ; fill
G1 X8.389 Y0.287 E14.26124 ; fill
G1 X8.389 Y0.846 E14.29787 ; fill
G1 X10.921 Y3.378 E14.53253 ; fill
G1 X10.921 Y3.936 E14.56916 ; fill
G1 X8.389 Y1.405 E14.80383 ; fill
G1 X8.389 Y1.964 E14.84045 ; fill
G1 X10.921 Y4.495 E15.07512 ; fill
G1 X10.921 Y5.054 E15.11175 ; fill
G1 X8.389 Y2.522 E15.34642 ; fill
G1 X8.389 Y3.081 E15.38304 ; fill
G1 X10.921 Y5.613 E15.61771 ; fill
G1 X10.921 Y6.171 E15.65434 ; fill
G1 X8.389 Y3.640 E15.88901 ; fill
G1 X8.389 Y4.199 E15.92563 ; fill
G1 X10.921 Y6.730 E16.16030 ; fill
G1 X10.921 Y7.289 E16.19693 ; fill
G1 X8.389 Y4.758 E16.43159 ; fill
G1 X8.389 Y5.316 E16.46822 ; fill
G1 X10.921 Y7.848 E16.70289 ; fill
G1 X10.661 Y8.147 E16.72885 ; fill
G1 X8.389 Y5.875 E16.93942 ; fill
G1 X8.389 Y6.434 E16.97605 ; fill
G1 X10.333 Y8.378 E17.15626 ; fill
G1 X10.921 Y9.524 F12000.000 ; move to first fill point
G1 X8.389 Y6.993 E17.39093 F300.000 ; fill
G1 X8.389 Y7.551 E17.42756 ; fill
G1 X10.921 Y10.083 E17.66222 ; fill
G1 X10.921 Y10.642 E17.69885 ; fill
G1 X8.389 Y8.110 E17.93352 ; fill
G1 X8.389 Y8.669 E17.97014 ; fill
G1 X10.921 Y11.200 E18.20481 ; fill
G1 X10.921 Y11.759 E18.24144 ; fill
G1 X8.389 Y9.228 E18.47611 ; fill
G1 X8.389 Y9.786 E18.51273 ; fill
G1 X10.921 Y12.318 E18.74740 ; fill
G1 X10.921 Y12.877 E18.78403 ; fill
G1 X8.389 Y10.345 E19.01870 ; fill
G1 X8.389 Y10.904 E19.05532 ; fill
G1 X10.921 Y13.435 E19.28999 ; fill
G1 X10.921 Y13.994 E19.32662 ; fill
G1 X8.389 Y11.463 E19.56128 ; fill
G1 X8.389 Y12.021 E19.59791 ; fill
G1 X10.921 Y14.553 E19.83258 ; fill
G1 X10.921 Y15.112 E19.86920 ; fill
G1 X8.389 Y12.580 E20.10387 ; fill
G1 X8.389 Y13.139 E20.14050 ; fill
G1 X10.921 Y15.670 E20.37517 ; fill
G1 X10.921 Y16.229 E20.41179 ; fill
G1 X8.389 Y13.698 E20.64646 ; fill
G1 X8.389 Y14.256 E20.68309 ; fill
G1 X10.921 Y16.788 E20.91776 ; fill
G1 X10.921 Y17.347 E20.95438 ; fill
G1 X8.389 Y14.815 E21.18905 ; fill
G1 X8.389 Y15.374 E21.22568 ; fill
G1 X10.921 Y17.905 E21.46034 ; fill
G1 X10.921 Y18.464 E21.49697 ; fill
G1 X8.389 Y15.933 E21.73164 ; fill
G1 X8.389 Y16.491 E21.76826 ; fill
G1 X10.921 Y19.023 E22.00293 ; fill
G1 X10.921 Y19.582 E22.03956 ; fill
G1 X8.389 Y17.050 E22.27423 ; fill
G1 X8.389 Y17.609 E22.31085 ; fill
G1 X10.921 Y20.140 E22.54552 ; fill
G1 X10.921 Y20.699 E22.58215 ; fill
G1 X8.389 Y18.168 E22.81681 ; fill
G1 X8.389 Y18.726 E22.85344 ; fill
G1 X10.921 Y21.258 E23.08811 ; fill
G1 X10.921 Y21.817 E23.12473 ; fill
G1 X8.389 Y19.285 E23.35940 ; fill
G1 X8.389 Y19.844 E23.39603 ; fill
G1 X10.921 Y22.375 E23.63070 ; fill
G1 X10.921 Y22.934 E23.66732 ; fill
G1 X8.387 Y20.400 E23.90225 ; fill
G1 X7.828 Y20.400 E23.93887 ; fill
G1 X10.921 Y23.493 E24.22559 ; fill
G1 X10.921 Y24.052 E24.26222 ; fill
G1 X7.269 Y20.400 E24.60074 ; fill
G1 X6.710 Y20.400 E24.63737 ; fill
G1 X10.896 Y24.585 E25.02535 ; fill
G1 X10.352 Y24.600 E25.06101 ; fill
G1 X6.152 Y20.400 E25.45037 ; fill
G1 X5.593 Y20.400 E25.48700 ; fill
G1 X9.793 Y24.600 E25.87636 ; fill
G1 X9.234 Y24.600 E25.91298 ; fill
G1 X5.034 Y20.400 E26.30234 ; fill
G1 X4.475 Y20.400 E26.33897 ; fill
G1 X8.676 Y24.600 E26.72833 ; fill
G1 X8.117 Y24.600 E26.76495 ; fill
G1 X3.917 Y20.400 E27.15431 ; fill
G1 X3.358 Y20.400 E27.19094 ; fill
G1 X7.558 Y24.600 E27.58030 ; fill
G1 X6.999 Y24.600 E27.61692 ; fill
G1 X2.799 Y20.400 E28.00628 ; fill
G1 X2.240 Y20.400 E28.04291 ; fill
G1 X6.441 Y24.600 E28.43226 ; fill
G1 X5.882 Y24.600 E28.46889 ; fill
G1 X1.682 Y20.400 E28.85825 ; fill
G1 X1.123 Y20.400 E28.89487 ; fill
G1 X5.323 Y24.600 E29.28423 ; fill
G1 X4.764 Y24.600 E29.32086 ; fill
G1 X0.599 Y20.435 E29.70695 ; fill
G1 X0.051 Y20.446 E29.74290 ; fill
G1 X4.206 Y24.600 E30.12802 ; fill
G1 X3.647 Y24.600 E30.16465 ; fill
G1 X-0.514 Y20.439 E30.55040 ; fill
G1 X-1.112 Y20.400 E30.58966 ; fill
G1 X3.088 Y24.600 E30.97902 ; fill
G1 X2.529 Y24.600 E31.01564 ; fill
G1 X-1.671 Y20.400 E31.40500 ; fill
G1 X-2.230 Y20.400 E31.44163 ; fill
G1 X1.970 Y24.600 E31.83099 ; fill
G1 X1.412 Y24.600 E31.86761 ; fill
G1 X-2.788 Y20.400 E32.25697 ; fill
G1 X-3.347 Y20.400 E32.29360 ; fill
G1 X0.853 Y24.600 E32.68296 ; fill
G1 X0.294 Y24.600 E32.71958 ; fill
G1 X-3.906 Y20.400 E33.10894 ; fill
G1 X-4.465 Y20.400 E33.14557 ; fill
G1 X-0.265 Y24.600 E33.53493 ; fill
G1 X-0.823 Y24.600 E33.57155 ; fill
G1 X-5.023 Y20.400 E33.96091 ; fill
G1 X-5.582 Y20.400 E33.99754 ; fill
G1 X-1.382 Y24.600 E34.38689 ; fill
G1 X-1.941 Y24.600 E34.42352 ; fill
G1 X-6.141 Y20.400 E34.81288 ; fill
G1 X-6.700 Y20.400 E34.84950 ; fill
G1 X-2.500 Y24.600 E35.23886 ; fill
G1 X-3.058 Y24.600 E35.27549 ; fill
G1 X-7.259 Y20.400 E35.66485 ; fill
G1 X-7.817 Y20.400 E35.70147 ; fill
G1 X-3.617 Y24.600 E36.09083 ; fill
G1 X-4.176 Y24.600 E36.12746 ; fill
G1 X-10.921 Y17.855 E36.75273 ; fill
G1 X-10.921 Y18.414 E36.78935 ; fill
G1 X-4.735 Y24.600 E37.36283 ; fill
G1 X-5.293 Y24.600 E37.39945 ; fill
G1 X-10.921 Y18.973 E37.92113 ; fill
G1 X-10.921 Y19.531 E37.95775 ; fill
G1 X-5.852 Y24.600 E38.42763 ; fill
G1 X-6.411 Y24.600 E38.46426 ; fill
G1 X-10.921 Y20.090 E38.88234 ; fill
G1 X-10.921 Y20.649 E38.91897 ; fill
G1 X-6.970 Y24.600 E39.28525 ; fill
G1 X-7.528 Y24.600 E39.32188 ; fill
G1 X-10.921 Y21.208 E39.63637 ; fill
G1 X-10.921 Y21.766 E39.67299 ; fill
G1 X-8.087 Y24.600 E39.93568 ; fill
G1 X-8.646 Y24.600 E39.97231 ; fill
G1 X-10.921 Y22.325 E40.18321 ; fill
G1 X-10.921 Y22.884 E40.21983 ; fill
G1 X-9.205 Y24.600 E40.37893 ; fill
G1 X-9.763 Y24.600 E40.41556 ; fill
G1 X-10.921 Y23.443 E40.52286 ; fill
G1 X-10.921 Y24.001 E40.55948 ; fill
G1 X-10.322 Y24.600 E40.61499 ; fill
G1 X-10.881 Y24.600 E40.65161 ; fill
