; generated by Slic3r 1.2.1 on 2014-11-22 at 15:51:58

; external perimeters extrusion width = 0.40mm
; perimeters extrusion width = 0.48mm
; infill extrusion width = 0.48mm
; solid infill extrusion width = 0.48mm
; top infill extrusion width = 0.48mm
; support material extrusion width = 0.40mm

M104 S190 ; set temperature
G28 ; home all axes
;G29
G1 Z5 F1000 ; lift nozzle
M109 S190 ; wait for temperature to be reached
G21 ; set units to millimeters
G90 ; use absolute coordinates
M82 ; use absolute distances for extrusion
G92 E0 ; reset extrusion distance
G1 Z0.400 F12000.000 ; move to next layer (0)
G1 E-3.50000 F12000.000 ; retract
G92 E0 ; reset extrusion distance
G1 Z1.400 F12000.000 ; lift Z
G1 X-29.788 Y30.000 F12000.000 ; move to first skirt point
G1 Z0.400 F12000.000 ; restore layer Z
G1 E3.50000 F12000.000 ; compensate retraction
G1 X-29.788 Y-30.000 E7.43294 F600.000 ; skirt
G1 X-29.735 Y-31.191 E7.51111 ; skirt
G1 X-29.661 Y-31.898 E7.55769 ; skirt
G1 X-29.530 Y-32.725 E7.61258 ; skirt
G1 X-29.382 Y-33.420 E7.65915 ; skirt
G1 X-29.166 Y-34.229 E7.71403 ; skirt
G1 X-28.946 Y-34.905 E7.76062 ; skirt
G1 X-28.646 Y-35.687 E7.81551 ; skirt
G1 X-28.357 Y-36.336 E7.86211 ; skirt
G1 X-27.976 Y-37.082 E7.91700 ; skirt
G1 X-27.621 Y-37.697 E7.96356 ; skirt
G1 X-27.165 Y-38.400 E8.01845 ; skirt
G1 X-26.748 Y-38.974 E8.06501 ; skirt
G1 X-26.221 Y-39.625 E8.11989 ; skirt
G1 X-25.745 Y-40.153 E8.16648 ; skirt
G1 X-25.153 Y-40.745 E8.22137 ; skirt
G1 X-24.625 Y-41.221 E8.26796 ; skirt
G1 X-23.974 Y-41.748 E8.32284 ; skirt
G1 X-23.400 Y-42.165 E8.36940 ; skirt
G1 X-22.697 Y-42.621 E8.42429 ; skirt
G1 X-22.082 Y-42.976 E8.47085 ; skirt
G1 X-21.336 Y-43.357 E8.52574 ; skirt
G1 X-20.687 Y-43.646 E8.57234 ; skirt
G1 X-19.905 Y-43.946 E8.62723 ; skirt
G1 X-19.229 Y-44.166 E8.67382 ; skirt
G1 X-18.420 Y-44.382 E8.72871 ; skirt
G1 X-17.725 Y-44.530 E8.77527 ; skirt
G1 X-16.898 Y-44.661 E8.83016 ; skirt
G1 X-16.191 Y-44.735 E8.87675 ; skirt
G1 X-15.000 Y-44.788 E8.95491 ; skirt
G1 X15.000 Y-44.788 E10.92138 ; skirt
G1 X16.191 Y-44.735 E10.99956 ; skirt
G1 X16.898 Y-44.661 E11.04613 ; skirt
G1 X17.725 Y-44.530 E11.10103 ; skirt
G1 X18.420 Y-44.382 E11.14759 ; skirt
G1 X19.229 Y-44.166 E11.20248 ; skirt
G1 X19.905 Y-43.946 E11.24906 ; skirt
G1 X20.687 Y-43.646 E11.30395 ; skirt
G1 X21.336 Y-43.357 E11.35055 ; skirt
G1 X22.082 Y-42.976 E11.40545 ; skirt
G1 X22.697 Y-42.621 E11.45201 ; skirt
G1 X23.400 Y-42.165 E11.50690 ; skirt
G1 X23.974 Y-41.748 E11.55345 ; skirt
G1 X24.625 Y-41.221 E11.60833 ; skirt
G1 X25.153 Y-40.745 E11.65492 ; skirt
G1 X25.716 Y-40.183 E11.70707 ; skirt
G1 X26.221 Y-39.625 E11.75640 ; skirt
G1 X26.748 Y-38.974 E11.81129 ; skirt
G1 X27.165 Y-38.400 E11.85784 ; skirt
G1 X27.621 Y-37.697 E11.91274 ; skirt
G1 X27.976 Y-37.082 E11.95929 ; skirt
G1 X28.357 Y-36.336 E12.01420 ; skirt
G1 X28.646 Y-35.687 E12.06079 ; skirt
G1 X28.931 Y-34.944 E12.11293 ; skirt
G1 X29.166 Y-34.229 E12.16225 ; skirt
G1 X29.382 Y-33.420 E12.21714 ; skirt
G1 X29.530 Y-32.725 E12.26371 ; skirt
G1 X29.661 Y-31.898 E12.31860 ; skirt
G1 X29.735 Y-31.191 E12.36519 ; skirt
G1 X29.779 Y-30.355 E12.42007 ; skirt
G1 X29.788 Y30.000 E16.37629 ; skirt
G1 X29.735 Y31.191 E16.45445 ; skirt
G1 X29.661 Y31.898 E16.50104 ; skirt
G1 X29.530 Y32.725 E16.55593 ; skirt
G1 X29.382 Y33.420 E16.60250 ; skirt
G1 X29.166 Y34.229 E16.65738 ; skirt
G1 X28.946 Y34.905 E16.70396 ; skirt
G1 X28.646 Y35.687 E16.75885 ; skirt
G1 X28.357 Y36.336 E16.80545 ; skirt
G1 X27.976 Y37.082 E16.86034 ; skirt
G1 X27.621 Y37.697 E16.90691 ; skirt
G1 X27.165 Y38.400 E16.96180 ; skirt
G1 X26.748 Y38.974 E17.00834 ; skirt
G1 X26.221 Y39.625 E17.06324 ; skirt
G1 X25.745 Y40.153 E17.10982 ; skirt
G1 X25.153 Y40.745 E17.16472 ; skirt
G1 X24.625 Y41.221 E17.21131 ; skirt
G1 X23.974 Y41.748 E17.26620 ; skirt
G1 X23.400 Y42.165 E17.31273 ; skirt
G1 X22.697 Y42.621 E17.36764 ; skirt
G1 X22.082 Y42.977 E17.41421 ; skirt
G1 X21.336 Y43.357 E17.46910 ; skirt
G1 X20.687 Y43.646 E17.51566 ; skirt
G1 X19.905 Y43.946 E17.57058 ; skirt
G1 X19.229 Y44.166 E17.61717 ; skirt
G1 X18.420 Y44.382 E17.67206 ; skirt
G1 X17.726 Y44.530 E17.71859 ; skirt
G1 X16.898 Y44.661 E17.77351 ; skirt
G1 X16.191 Y44.735 E17.82008 ; skirt
G1 X15.000 Y44.788 E17.89826 ; skirt
G1 X-15.000 Y44.788 E19.86473 ; skirt
G1 X-16.191 Y44.735 E19.94290 ; skirt
G1 X-16.898 Y44.661 E19.98949 ; skirt
G1 X-17.725 Y44.530 E20.04438 ; skirt
G1 X-18.420 Y44.382 E20.09091 ; skirt
G1 X-19.229 Y44.166 E20.14582 ; skirt
G1 X-19.905 Y43.946 E20.19242 ; skirt
G1 X-20.687 Y43.646 E20.24731 ; skirt
G1 X-21.336 Y43.357 E20.29388 ; skirt
G1 X-22.082 Y42.977 E20.34879 ; skirt
G1 X-22.697 Y42.621 E20.39536 ; skirt
G1 X-23.400 Y42.165 E20.45025 ; skirt
G1 X-23.974 Y41.748 E20.49679 ; skirt
G1 X-24.625 Y41.221 E20.55168 ; skirt
G1 X-25.183 Y40.716 E20.60100 ; skirt
G1 X-25.745 Y40.153 E20.65317 ; skirt
G1 X-26.221 Y39.625 E20.69975 ; skirt
G1 X-26.748 Y38.974 E20.75463 ; skirt
G1 X-27.165 Y38.400 E20.80117 ; skirt
G1 X-27.621 Y37.697 E20.85608 ; skirt
G1 X-27.976 Y37.082 E20.90264 ; skirt
G1 X-28.357 Y36.336 E20.95753 ; skirt
G1 X-28.646 Y35.687 E21.00412 ; skirt
G1 X-28.946 Y34.905 E21.05902 ; skirt
G1 X-29.166 Y34.229 E21.10561 ; skirt
G1 X-29.382 Y33.420 E21.16049 ; skirt
G1 X-29.530 Y32.725 E21.20704 ; skirt
G1 X-29.661 Y31.898 E21.26195 ; skirt
G1 X-29.735 Y31.191 E21.30853 ; skirt
G1 X-29.787 Y30.060 E21.38277 ; skirt
G1 X-29.394 Y30.000 F12000.000 ; move to first skirt point
G1 X-29.394 Y-30.000 E25.31571 F600.000 ; skirt
G1 X-29.342 Y-31.171 E25.39253 ; skirt
G1 X-29.272 Y-31.836 E25.43640 ; skirt
G1 X-29.141 Y-32.664 E25.49130 ; skirt
G1 X-29.002 Y-33.318 E25.53516 ; skirt
G1 X-28.785 Y-34.127 E25.59004 ; skirt
G1 X-28.578 Y-34.764 E25.63392 ; skirt
G1 X-28.278 Y-35.545 E25.68881 ; skirt
G1 X-28.006 Y-36.157 E25.73271 ; skirt
G1 X-27.625 Y-36.903 E25.78760 ; skirt
G1 X-27.291 Y-37.483 E25.83146 ; skirt
G1 X-26.835 Y-38.185 E25.88635 ; skirt
G1 X-26.441 Y-38.726 E25.93020 ; skirt
G1 X-25.914 Y-39.377 E25.98508 ; skirt
G1 X-25.467 Y-39.874 E26.02896 ; skirt
G1 X-24.874 Y-40.467 E26.08386 ; skirt
G1 X-24.377 Y-40.915 E26.12774 ; skirt
G1 X-23.726 Y-41.441 E26.18263 ; skirt
G1 X-23.185 Y-41.835 E26.22648 ; skirt
G1 X-22.483 Y-42.291 E26.28137 ; skirt
G1 X-21.903 Y-42.625 E26.32523 ; skirt
G1 X-21.157 Y-43.006 E26.38012 ; skirt
G1 X-20.545 Y-43.278 E26.42401 ; skirt
G1 X-19.764 Y-43.578 E26.47890 ; skirt
G1 X-19.127 Y-43.785 E26.52278 ; skirt
G1 X-18.318 Y-44.002 E26.57767 ; skirt
G1 X-17.664 Y-44.141 E26.62153 ; skirt
G1 X-16.836 Y-44.272 E26.67642 ; skirt
G1 X-16.171 Y-44.342 E26.72030 ; skirt
G1 X-15.000 Y-44.394 E26.79712 ; skirt
G1 X15.000 Y-44.394 E28.76359 ; skirt
G1 X16.171 Y-44.342 E28.84041 ; skirt
G1 X16.836 Y-44.272 E28.88428 ; skirt
G1 X17.664 Y-44.141 E28.93918 ; skirt
G1 X18.318 Y-44.002 E28.98304 ; skirt
G1 X19.127 Y-43.785 E29.03792 ; skirt
G1 X19.764 Y-43.578 E29.08180 ; skirt
G1 X20.545 Y-43.278 E29.13669 ; skirt
G1 X21.157 Y-43.006 E29.18058 ; skirt
G1 X21.903 Y-42.625 E29.23548 ; skirt
G1 X22.483 Y-42.291 E29.27933 ; skirt
G1 X23.185 Y-41.835 E29.33423 ; skirt
G1 X23.726 Y-41.441 E29.37808 ; skirt
G1 X24.377 Y-40.915 E29.43296 ; skirt
G1 X24.874 Y-40.467 E29.47684 ; skirt
G1 X25.437 Y-39.904 E29.52899 ; skirt
G1 X25.914 Y-39.377 E29.57562 ; skirt
G1 X26.441 Y-38.726 E29.63051 ; skirt
G1 X26.835 Y-38.185 E29.67435 ; skirt
G1 X27.291 Y-37.483 E29.72925 ; skirt
G1 X27.625 Y-36.903 E29.77310 ; skirt
G1 X28.006 Y-36.157 E29.82801 ; skirt
G1 X28.278 Y-35.545 E29.87189 ; skirt
G1 X28.563 Y-34.803 E29.92404 ; skirt
G1 X28.785 Y-34.127 E29.97065 ; skirt
G1 X29.002 Y-33.318 E30.02554 ; skirt
G1 X29.141 Y-32.664 E30.06940 ; skirt
G1 X29.272 Y-31.836 E30.12429 ; skirt
G1 X29.342 Y-31.171 E30.16818 ; skirt
G1 X29.385 Y-30.334 E30.22306 ; skirt
G1 X29.394 Y30.000 E34.17792 ; skirt
G1 X29.342 Y31.171 E34.25474 ; skirt
G1 X29.272 Y31.836 E34.29862 ; skirt
G1 X29.141 Y32.664 E34.35351 ; skirt
G1 X29.002 Y33.318 E34.39738 ; skirt
G1 X28.785 Y34.127 E34.45226 ; skirt
G1 X28.578 Y34.763 E34.49614 ; skirt
G1 X28.278 Y35.545 E34.55103 ; skirt
G1 X28.006 Y36.157 E34.59491 ; skirt
G1 X27.625 Y36.903 E34.64981 ; skirt
G1 X27.291 Y37.483 E34.69367 ; skirt
G1 X26.835 Y38.185 E34.74856 ; skirt
G1 X26.442 Y38.726 E34.79240 ; skirt
G1 X25.914 Y39.377 E34.84730 ; skirt
G1 X25.467 Y39.874 E34.89118 ; skirt
G1 X24.874 Y40.467 E34.94608 ; skirt
G1 X24.377 Y40.915 E34.98996 ; skirt
G1 X23.726 Y41.441 E35.04485 ; skirt
G1 X23.185 Y41.834 E35.08868 ; skirt
G1 X22.483 Y42.291 E35.14358 ; skirt
G1 X21.903 Y42.625 E35.18745 ; skirt
G1 X21.157 Y43.006 E35.24234 ; skirt
G1 X20.546 Y43.278 E35.28620 ; skirt
G1 X19.764 Y43.578 E35.34112 ; skirt
G1 X19.127 Y43.785 E35.38500 ; skirt
G1 X18.318 Y44.002 E35.43989 ; skirt
G1 X17.664 Y44.141 E35.48372 ; skirt
G1 X16.837 Y44.272 E35.53863 ; skirt
G1 X16.171 Y44.342 E35.58251 ; skirt
G1 X15.000 Y44.394 E35.65933 ; skirt
G1 X-15.000 Y44.394 E37.62580 ; skirt
G1 X-16.171 Y44.342 E37.70262 ; skirt
G1 X-16.837 Y44.272 E37.74650 ; skirt
G1 X-17.664 Y44.141 E37.80139 ; skirt
G1 X-18.318 Y44.002 E37.84523 ; skirt
G1 X-19.127 Y43.785 E37.90013 ; skirt
G1 X-19.764 Y43.578 E37.94402 ; skirt
G1 X-20.545 Y43.278 E37.99891 ; skirt
G1 X-21.157 Y43.006 E38.04278 ; skirt
G1 X-21.903 Y42.625 E38.09769 ; skirt
G1 X-22.483 Y42.291 E38.14155 ; skirt
G1 X-23.185 Y41.835 E38.19644 ; skirt
G1 X-23.726 Y41.441 E38.24029 ; skirt
G1 X-24.377 Y40.915 E38.29517 ; skirt
G1 X-24.904 Y40.437 E38.34179 ; skirt
G1 X-25.467 Y39.874 E38.39396 ; skirt
G1 X-25.914 Y39.377 E38.43783 ; skirt
G1 X-26.441 Y38.726 E38.49272 ; skirt
G1 X-26.835 Y38.185 E38.53655 ; skirt
G1 X-27.291 Y37.483 E38.59146 ; skirt
G1 X-27.625 Y36.903 E38.63532 ; skirt
G1 X-28.006 Y36.157 E38.69021 ; skirt
G1 X-28.278 Y35.545 E38.73410 ; skirt
G1 X-28.578 Y34.764 E38.78900 ; skirt
G1 X-28.785 Y34.127 E38.83287 ; skirt
G1 X-29.002 Y33.318 E38.88776 ; skirt
G1 X-29.141 Y32.664 E38.93161 ; skirt
G1 X-29.272 Y31.836 E38.98651 ; skirt
G1 X-29.342 Y31.171 E39.03038 ; skirt
G1 X-29.393 Y30.060 E39.10328 ; skirt
G1 F9600.000
G1 X-29.393 Y27.260 E35.77828 ; retract
G1 E35.60328 F12000.000 ; retract
G92 E0 ; reset extrusion distance
G1 Z1.400 F12000.000 ; lift Z
G1 X-21.765 Y30.572 F12000.000 ; move to first perimeter point
G1 Z0.400 F12000.000 ; restore layer Z
G1 E3.50000 F12000.000 ; compensate retraction
G1 X-21.514 Y30.572 E3.51645 F600.000 ; perimeter
G1 X-21.673 Y30.883 E3.53937 ; perimeter
G1 X-21.837 Y31.312 E3.56946 ; perimeter
G1 X-21.931 Y31.661 E3.59316 ; perimeter
G1 X-22.186 Y31.648 E3.60990 ; perimeter
G1 X-22.325 Y30.770 E3.66815 ; perimeter
G1 X-22.366 Y29.983 E3.71977 ; perimeter
G1 X-22.366 Y-29.983 E7.65053 ; perimeter
G1 X-22.325 Y-30.770 E7.70215 ; perimeter
G1 X-22.186 Y-31.648 E7.76040 ; perimeter
G1 X-21.931 Y-31.661 E7.77713 ; perimeter
G1 X-21.837 Y-31.312 E7.80083 ; perimeter
G1 X-21.673 Y-30.883 E7.83092 ; perimeter
G1 X-21.464 Y-30.474 E7.86101 ; perimeter
G1 X-21.214 Y-30.089 E7.89109 ; perimeter
G1 X-20.925 Y-29.732 E7.92118 ; perimeter
G1 X-20.601 Y-29.408 E7.95127 ; perimeter
G1 X-20.244 Y-29.119 E7.98135 ; perimeter
G1 X-19.859 Y-28.869 E8.01144 ; perimeter
G1 X-19.450 Y-28.661 E8.04153 ; perimeter
G1 X-19.022 Y-28.496 E8.07161 ; perimeter
G1 X-18.578 Y-28.377 E8.10170 ; perimeter
G1 X-18.125 Y-28.306 E8.13179 ; perimeter
G1 X-17.667 Y-28.282 E8.16187 ; perimeter
G1 X-17.208 Y-28.306 E8.19195 ; perimeter
G1 X-16.755 Y-28.377 E8.22204 ; perimeter
G1 X-16.312 Y-28.496 E8.25213 ; perimeter
G1 X-15.883 Y-28.661 E8.28222 ; perimeter
G1 X-15.474 Y-28.869 E8.31230 ; perimeter
G1 X-15.089 Y-29.119 E8.34239 ; perimeter
G1 X-14.733 Y-29.408 E8.37247 ; perimeter
G1 X-14.408 Y-29.733 E8.40256 ; perimeter
G1 X-14.119 Y-30.089 E8.43265 ; perimeter
G1 X-13.869 Y-30.474 E8.46273 ; perimeter
G1 X-13.661 Y-30.883 E8.49282 ; perimeter
G1 X-13.496 Y-31.312 E8.52291 ; perimeter
G1 X-13.377 Y-31.755 E8.55299 ; perimeter
G1 X-13.306 Y-32.208 E8.58308 ; perimeter
G1 X-13.282 Y-32.667 E8.61317 ; perimeter
G1 X-13.306 Y-33.125 E8.64325 ; perimeter
G1 X-13.377 Y-33.578 E8.67333 ; perimeter
G1 X-13.496 Y-34.022 E8.70343 ; perimeter
G1 X-13.661 Y-34.450 E8.73351 ; perimeter
G1 X-13.869 Y-34.859 E8.76360 ; perimeter
G1 X-14.119 Y-35.244 E8.79369 ; perimeter
G1 X-14.408 Y-35.601 E8.82377 ; perimeter
G1 X-14.732 Y-35.925 E8.85385 ; perimeter
G1 X-15.089 Y-36.214 E8.88394 ; perimeter
G1 X-15.474 Y-36.464 E8.91403 ; perimeter
G1 X-15.883 Y-36.673 E8.94412 ; perimeter
G1 X-16.312 Y-36.837 E8.97420 ; perimeter
G1 X-16.661 Y-36.931 E8.99790 ; perimeter
G1 X-16.648 Y-37.186 E9.01464 ; perimeter
G1 X-15.770 Y-37.325 E9.07289 ; perimeter
G1 X-14.983 Y-37.366 E9.12451 ; perimeter
G1 X14.983 Y-37.366 E11.08880 ; perimeter
G1 X15.770 Y-37.325 E11.14042 ; perimeter
G1 X16.648 Y-37.186 E11.19867 ; perimeter
G1 X16.661 Y-36.931 E11.21541 ; perimeter
G1 X16.312 Y-36.837 E11.23910 ; perimeter
G1 X15.883 Y-36.673 E11.26919 ; perimeter
G1 X15.474 Y-36.464 E11.29928 ; perimeter
G1 X15.089 Y-36.214 E11.32936 ; perimeter
G1 X14.732 Y-35.925 E11.35946 ; perimeter
G1 X14.408 Y-35.601 E11.38954 ; perimeter
G1 X14.119 Y-35.244 E11.41962 ; perimeter
G1 X13.869 Y-34.859 E11.44971 ; perimeter
G1 X13.661 Y-34.450 E11.47980 ; perimeter
G1 X13.496 Y-34.022 E11.50988 ; perimeter
G1 X13.377 Y-33.578 E11.53998 ; perimeter
G1 X13.306 Y-33.125 E11.57007 ; perimeter
G1 X13.282 Y-32.667 E11.60014 ; perimeter
G1 X13.306 Y-32.208 E11.63023 ; perimeter
G1 X13.377 Y-31.755 E11.66032 ; perimeter
G1 X13.496 Y-31.312 E11.69040 ; perimeter
G1 X13.661 Y-30.883 E11.72049 ; perimeter
G1 X13.869 Y-30.474 E11.75058 ; perimeter
G1 X14.119 Y-30.089 E11.78066 ; perimeter
G1 X14.408 Y-29.733 E11.81075 ; perimeter
G1 X14.733 Y-29.408 E11.84083 ; perimeter
G1 X15.089 Y-29.119 E11.87092 ; perimeter
G1 X15.474 Y-28.869 E11.90101 ; perimeter
G1 X15.883 Y-28.661 E11.93109 ; perimeter
G1 X16.312 Y-28.496 E11.96118 ; perimeter
G1 X17.554 Y-28.163 E12.04547 ; perimeter
G1 X17.554 Y-28.276 E12.05283 ; perimeter
G1 X18.125 Y-28.306 E12.09033 ; perimeter
G1 X18.806 Y-28.414 E12.13556 ; perimeter
G1 X19.450 Y-28.661 E12.18076 ; perimeter
G1 X19.859 Y-28.869 E12.21085 ; perimeter
G1 X20.244 Y-29.119 E12.24094 ; perimeter
G1 X20.601 Y-29.408 E12.27102 ; perimeter
G1 X20.925 Y-29.732 E12.30110 ; perimeter
G1 X21.214 Y-30.089 E12.33120 ; perimeter
G1 X21.464 Y-30.474 E12.36128 ; perimeter
G1 X21.673 Y-30.883 E12.39137 ; perimeter
G1 X21.837 Y-31.312 E12.42146 ; perimeter
G1 X21.931 Y-31.661 E12.44515 ; perimeter
G1 X22.186 Y-31.648 E12.46189 ; perimeter
G1 X22.325 Y-30.770 E12.52014 ; perimeter
G1 X22.366 Y-29.983 E12.57176 ; perimeter
G1 X22.366 Y29.983 E16.50252 ; perimeter
G1 X22.325 Y30.770 E16.55414 ; perimeter
G1 X22.186 Y31.648 E16.61239 ; perimeter
G1 X21.931 Y31.661 E16.62913 ; perimeter
G1 X21.837 Y31.312 E16.65283 ; perimeter
G1 X21.673 Y30.883 E16.68291 ; perimeter
G1 X21.464 Y30.474 E16.71300 ; perimeter
G1 X21.214 Y30.089 E16.74309 ; perimeter
G1 X20.925 Y29.732 E16.77318 ; perimeter
G1 X20.601 Y29.408 E16.80327 ; perimeter
G1 X20.244 Y29.119 E16.83334 ; perimeter
G1 X19.859 Y28.869 E16.86343 ; perimeter
G1 X19.450 Y28.661 E16.89352 ; perimeter
G1 X19.022 Y28.496 E16.92360 ; perimeter
G1 X18.578 Y28.377 E16.95370 ; perimeter
G1 X18.125 Y28.306 E16.98379 ; perimeter
G1 X17.667 Y28.282 E17.01386 ; perimeter
G1 X17.208 Y28.306 E17.04395 ; perimeter
G1 X16.755 Y28.377 E17.07404 ; perimeter
G1 X16.251 Y28.519 E17.10834 ; perimeter
G1 X15.883 Y28.661 E17.13419 ; perimeter
G1 X15.474 Y28.869 E17.16428 ; perimeter
G1 X15.089 Y29.119 E17.19436 ; perimeter
G1 X14.733 Y29.408 E17.22445 ; perimeter
G1 X14.408 Y29.733 E17.25453 ; perimeter
G1 X14.119 Y30.089 E17.28462 ; perimeter
G1 X13.869 Y30.474 E17.31471 ; perimeter
G1 X13.661 Y30.883 E17.34479 ; perimeter
G1 X13.496 Y31.312 E17.37488 ; perimeter
G1 X13.377 Y31.755 E17.40496 ; perimeter
G1 X13.306 Y32.208 E17.43506 ; perimeter
G1 X13.282 Y32.667 E17.46514 ; perimeter
G1 X13.306 Y33.125 E17.49522 ; perimeter
G1 X13.377 Y33.578 E17.52531 ; perimeter
G1 X13.496 Y34.022 E17.55540 ; perimeter
